public/editor-src/editor/icons/fa/sink.svg

<svg xmlns="http://www.w3.org/2000/svg" viewBox="0 0 512 512"><!--! Font Awesome Free 6.4.0 by @fontawesome - https://fontawesome.com License - https://fontawesome.com/license/free (Icons: CC BY 4.0, Fonts: SIL OFL 1.1, Code: MIT License) Copyright 2023 Fonticons, Inc.--><path d="M288 96c0-17.7 14.3-32 32-32s32 14.3 32 32 14.3 32 32 32 32-14.3 32-32c0-53-43-96-96-96s-96 43-96 96v192h-64v-24c0-30.9-25.1-56-56-56H56c-13.3 0-24 10.7-24 24s10.7 24 24 24h48c4.4 0 8 3.6 8 8v24H32c-17.7 0-32 14.3-32 32s14.3 32 32 32h448c17.7 0 32-14.3 32-32s-14.3-32-32-32h-80v-24c0-4.4 3.6-8 8-8h56c13.3 0 24-10.7 24-24s-10.7-24-24-24h-56c-30.9 0-56 25.1-56 56v24h-64V96zm192 320v-32H32v32c0 53 43 96 96 96h256c53 0 96-43 96-96z"/></svg>

<svg xmlns="http://www.w3.org/2000/svg" viewBox="0 0 512 512"><!--! Font Awesome Free 6.4.0 by @fontawesome - https://fontawesome.com License - https://fontawesome.com/license/free (Icons: CC BY 4.0, Fonts: SIL OFL 1.1, Code: MIT License) Copyright 2023 Fonticons, Inc. --><path d="M288 96c0-17.7 14.3-32 32-32s32 14.3 32 32s14.3 32 32 32s32-14.3 32-32c0-53-43-96-96-96s-96 43-96 96V288H160V264c0-30.9-25.1-56-56-56H56c-13.3 0-24 10.7-24 24s10.7 24 24 24h48c4.4 0 8 3.6 8 8v24H32c-17.7 0-32 14.3-32 32s14.3 32 32 32H256 480c17.7 0 32-14.3 32-32s-14.3-32-32-32H400V264c0-4.4 3.6-8 8-8h56c13.3 0 24-10.7 24-24s-10.7-24-24-24H408c-30.9 0-56 25.1-56 56v24H288V96zM480 416V384H32v32c0 53 43 96 96 96H384c53 0 96-43 96-96z"/></svg>
